X:1
T:Title
%%score 1 2
L:1/8
Q:1/4=90
M:4/4
K:A
V:1 treble nm="Grand Piano, Soprano"
V:2 bass nm="Choir Pad, Villarrica, 11.11.11.11 D"
V:1
 [Ec]>[Ec] [CA]>[CE] [DF]2 [CE]2 | [A,C]>[CE] [CA]>[CB] [DG]4 | [Ed]>[Ed] [Ed]>[EB] [EG]2 [DG]2 | %3
w: By~C.~L.~Chamberlin,~1900 * * * * *|||
 [CA]>[CA] [DG]>[DF] [CE]4 | [Ec]>[Ec] [EA]>[CE] [DF]2 [DF]2 | [^DF]>[DF] [DB]>[DA] [EG]4 | %6
w: |||
 [EA]>[EA] [EB]>[Ec] [Fe]>[Fd] [DF]>[FA] | [EG]2 [EB]2 [EA]4 | [Ac]>[Ac] [Ac]>[Ac] [GB]2 [GB]2 | %9
w: |||
 [FA]>[FA] [FA]>[FA] [^EG]4 | [DF]>[DF] [DF]>[DF] [CE]2 [EA]2 | [EB]>[EB] [EB]>[Ec] [EB]4 | %12
w: |||
 [Ec]>[Ec] [EA]>[CE] [DF]2 [DF]2 | [^DF]>[DF] [DB]>[DA] [EG]4 | %14
w: ||
 [EA]>[EA] [EB]>[Ec] [Fe]>[Fd] [DF]>[FA] | [EG]2 [EB]2 [EA]4- | [EA]4 z4 |] %17
w: |||
V:2
 [A,,A,]>[A,,A,] [A,,A,]>[A,,A,] [A,,A,]2 [A,,A,]2 | [A,,E,]>[A,,E,] [A,,E,]>[A,,E,] [B,,F,]4 | %2
 [E,G,]>[E,G,] [E,G,]>[E,G,] [E,B,]2 [E,B,]2 | A,>A, A,>A, A,4 | %4
 A,>[E,A,] [C,A,]>[A,,A,] [D,A,]2 [D,A,]2 | [B,,B,]>[B,,B,] [B,,F,]>[B,,B,] [E,B,]4 | %6
 [C,A,]>[C,A,] [E,G,]>A, [D,A,]>[D,A,] [D,A,]>[D,D] | [E,B,]2 [E,D]2 [A,C]4 | %8
 [A,E]>[A,E] [A,E]>[A,E] [E,C]2 [E,B,]2 | [F,C]>[F,C] [F,C]>[F,C] [C,C]4 | %10
 [D,A,]>[D,A,] [D,A,]>[D,A,] [A,,A,]2 [C,A,]2 | [B,,G,]>[B,,G,] [B,,G,]>[B,,G,] [E,G,]4 | %12
 A,>[E,A,] [C,A,]>[A,,A,] [D,A,]2 [D,A,]2 | [B,,B,]>[B,,B,] [B,,F,]>[B,,B,] [E,B,]4 | %14
 [C,A,]>[C,A,] [E,G,]>A, [D,A,]>[D,A,] [D,A,]>[D,D] | [E,B,]2 [E,D]2 [A,C]4- | [A,C]4 z4 |] %17

